X:1
T: The Lads of Dunse
C:
R:Jig
Q:180
K:D
M:6/8
L:1/16
B2|A2F2D2 D2F2D2|D2F2D2 B4A2|B2c2d2 A2F2A2|B2E2E2 E4dB|A2F2D2 D2F2D2|D2F2D2 B4A2|B2c2d2 A2F2A2|F2D2D2 D4B2|
A2F2D2 D2F2D2|D2F2D2 B4A2|B2c2d2 A2F2A2|B2E2E2 E4dB|A2F2D2 D2F2D2|D2F2D2 B4A2|B2c2d2 A2F2A2|F2D2D2 D4g2|
f2e2f2 d4e2|f2g2a2 B4A2|B2c2d2 A2F2A2|B2E2E2 E4g2|f2e2f2 d4e2|f2g2a2 B4A2|B2c2d2 A2F2A2|F2D2D2 D4g2|
f2e2f2 d4e2|f2g2a2 B4A2|B2c2d2 A2F2A2|B2E2E2 E4g2|f2g2a2 e2f2g2|f2e2a2 B4A2|B2c2d2 F4E2|F2D2D2 D4||
